X:432
T: EINSTMALS SASS ICH VOR MEINER HUETTE
N: E0355
O: Europa, Mitteleuropa, Deutschland, Hessen, Odenwald; Nassau
R: historisches Lied, Krieg, Schlacht bei Leipzig (1813)
M: 6/8
L: 1/8
K: G
DEF | G2BAGA | BAz
AAA | d2cB2A | G2z
DEF | G2BAGA | BAz
AAA | d2cB2A | G2z
BBB | dcAcBG | BAz
BBB | dcAcBG | BAz
DEF | G2BAGA | BAz
edc | BAGAGF | d3
edc | BAGd2d | G2z

@@@ Tune index: 4082
